X: 4197
T: KATIE FLANIGAN
R: Jig
%R: jig
B: James Kerr "Merry Melodies" v.4 p.22 #197
Z: 2016 John Chambers <jc:trillian.mit.edu>
M: 6/8
L: 1/8
K: D
|:\
Add dcd | g2f efg | afd def | ged cBA |\
Add dcd | g2f efg | fed ABc | e3  d3 :|
|:\
afa bgb | agf fed | geg fdf | efe dcB |\
Add dcd | g2f efg | fed ABc | d3- d3 :|

%%sep 1 1 500
%%sep 1 1 500

